X:1
T:Pr\"aludium
T:Pr\"aludium
T:(Prelude) BWV 942
T:Johann Sebastian Bach
C:Johann Sebastian Bach
%%score 1 2
L:1/8
M:9/8
K:C
V:1 treble 
V:2 bass 
V:1
 aef ade ace | aBc A>cB/A/ ^dcB | g^de c'g^f bfe | a^f^d gf/e/d/e/ g=d^c | =f^cd fe/d/c/d/ e=cB | %5
 eBc eAB eGA | e^FG E>GF/E/ ^c_BA | dE=F D>FE/D/ ^GFE | =c^GA dGA eGA | %9
 F/=G/F/E/D/E/ F/G/A/B/c/d/ e/^f/^g/a/b/c'/ | de=f e^ga BcA | ^Gfe Aed Bdc | cBA fc^G e=G^F | %13
 d=FE c^GA ^FGA | ^G/e/d/c/B/A/ G/^F/E/D/C/B,/ x x2 | x2 x/ E/ A/c/e/B/c/A/ EA^G | %16
 A=G/=F/E/D/ C/B,/A,/^G,/A,/E,/ x x2 |] %17
V:2
 A,2 z C2 z F2 z | E2 z C2 z A,2 z | EB,C EA,B, EG,A, | E^F,G, E,>G,F,/E,/ ^C^A,=A, | %4
 DE,F, D,>F,E,/D,/ =B,_A,G, | C^G,A, B,^F,=G, A,E,F, | G,^D,E, ^C2 z A,2 z | %7
 =F,^C,D, ^G,2 z E,2 z | A,2 z B,2 z =C2 z | D,3 z2 z z2 z | %10
 B,,C,/B,,/A,,/B,,/ C,D,/C,/B,,/C,/ D,E,/D,/C,/D,/ | E,3 z2 z z2 z | A,E,F, A,D,E, A,^C,D, | %13
 A,B,,C, A,,>C,B,,/A,,/ ^D,C,B,, | E,2 z z2 z A,/^G,/^F,/E,/F,/G,/ | %15
 A,/ C,/E,/A,/C/ z/ z2 D, E,2 E,, | A,,2 z z2 z A,,2 x |] %17

